material/.icons/material/card-text.svg

<svg xmlns="http://www.w3.org/2000/svg" viewBox="0 0 24 24"><path d="M20 20H4a2 2 0 01-2-2V6a2 2 0 012-2h16a2 2 0 012 2v12a2 2 0 01-2 2M5 13v2h11v-2H5m0-4v2h14V9H5z"/></svg>

<?xml version="1.0" encoding="UTF-8"?><!DOCTYPE svg PUBLIC "-//W3C//DTD SVG 1.1//EN" "http://www.w3.org/Graphics/SVG/1.1/DTD/svg11.dtd"><svg xmlns="http://www.w3.org/2000/svg" xmlns:xlink="http://www.w3.org/1999/xlink" version="1.1" id="mdi-card-text" width="24" height="24" viewBox="0 0 24 24"><path d="M20,20H4A2,2 0 0,1 2,18V6A2,2 0 0,1 4,4H20A2,2 0 0,1 22,6V18A2,2 0 0,1 20,20M5,13V15H16V13H5M5,9V11H19V9H5Z" /></svg>
